X:461
T:Twinkle Little Star
C:Texas fiddle tune
N:Transcribed by Kim Davis and Mike Stangeland
R:bluegrass
L:1/8
Q:1/4=220
M:4/4
K:G
z6 B,A, | "G"G,A, B,C DE GA | BG Ac BA G=F | "C"EC EG cG EG | "G"DE DC B,C A,B, | 
G,A, B,C DE GA | BG Ac B3c/B/ | "A"A2 E2 F2 G2 | "D"AB AG FE DC | "G"B,C DE DB, CB, | 
Dc zd B4 | "C"G=F EG cG EG | "G"DE DC B,C A,B, | G,A, B,C DE GA | BG Ac B4 | "D"cB AG FD EF | 
"G"G6 Bc | "G"dB AB dB GA | BG Ac BA G=F | "C"EC EG cG EG | "G"DE DC B,C A,B, | 
Bd ze d2 de | dc Bc B3c/B/ | "A"A2 E2 F2 G2 | "D"AB AG FE DD | "G"Bd ze dB GA | 
BG Ac BA G=F | "C"EC EG cG EG | "G"DE DC B,C A,B, | G,A, B,C DE GA | BG Ac B4 | 
"D"cB AG FD EF | "G"G8 | 


